;FLAVOR:Marlin
;TIME:758
;Filament used: 0.00412323m
;Layer height: 0.5
;MINX:26.616
;MINY:26.616
;MINZ:0.3
;MAXX:48.384
;MAXY:48.384
;MAXZ:14.8
;TARGET_MACHINE.NAME:Unknown
;Generated with Cura_SteamEngine 5.9.0
M104 S40
M105
M109 S40
M82 ;absolute extrusion mode
;G28 ;Home
;G1 Z15.0 F6000 ;Move the platform down 15mm
;Prime the extruder
G92 E0
G1 F200 E3
G92 E0
G92 E0
G92 E0
G1 F60 E-0.5
;LAYER_COUNT:30
;LAYER:0
M107
;-------------------
;Nozzle purge
G1 F300 Z10
G1 F300 X20
G1 F0.94 E1
G92 E0
G1 F600 X0
G1 F300 Z0.3
;-------------------
;MESH:pyramid_23x15.stl
G0 F600 X48.384 Y48.384 Z0.3
;TYPE:WALL-OUTER
G1 F60 E0
G1 F300 X26.616 Y48.384 E0.01017
G1 X26.616 Y26.616 E0.02033
G1 X48.384 Y26.616 E0.0305
G1 X48.384 Y48.384 E0.04066
G0 F600 X47.884 Y48.384
G0 X46.804 Y46.804
G0 X47.432 Y47.432
;TYPE:SKIN
G1 F300 X27.564 Y47.432 E0.04994
G1 X27.564 Y27.564 E0.05922
G1 X47.432 Y27.564 E0.06849
G1 X47.432 Y47.432 E0.07777
G0 F600 X46.804 Y46.804
G0 X46.774 Y28.547
G0 X46.932 Y28.547
G1 F300 X46.448 Y28.064 E0.07809
G0 F600 X46.448 Y28.226
G0 X45.034 Y28.226
G0 X45.034 Y28.064
G1 F300 X46.932 Y29.962 E0.07935
G0 F600 X46.774 Y29.962
G0 X46.774 Y31.376
G0 X46.932 Y31.376
G1 F300 X43.62 Y28.064 E0.08153
G0 F600 X43.62 Y28.226
G0 X42.206 Y28.226
G0 X42.206 Y28.064
G1 F300 X46.932 Y32.79 E0.08465
G0 F600 X46.774 Y32.79
G0 X46.774 Y34.204
G0 X46.932 Y34.204
G1 F300 X40.792 Y28.064 E0.08871
G0 F600 X40.792 Y28.226
G0 X39.377 Y28.226
G0 X39.377 Y28.064
G1 F300 X46.932 Y35.618 E0.0937
G0 F600 X46.774 Y35.618
G0 X46.774 Y37.033
G0 X46.932 Y37.033
G1 F300 X37.963 Y28.064 E0.09962
G0 F600 X37.963 Y28.226
G0 X36.549 Y28.226
G0 X36.549 Y28.064
G1 F300 X46.932 Y38.447 E0.10648
G0 F600 X46.774 Y38.447
G0 X46.774 Y39.861
G0 X46.932 Y39.861
G1 F300 X35.135 Y28.064 E0.11427
G0 F600 X35.135 Y28.226
G0 X33.721 Y28.226
G0 X33.721 Y28.064
G1 F300 X46.932 Y41.275 E0.12299
G0 F600 X46.774 Y41.275
G0 X46.774 Y42.689
G0 X46.932 Y42.689
G1 F300 X32.306 Y28.064 E0.13265
G0 F600 X32.306 Y28.226
G0 X30.892 Y28.226
G0 X30.892 Y28.064
G1 F300 X46.932 Y44.104 E0.14325
G0 F600 X46.774 Y44.104
G0 X46.774 Y45.518
G0 X46.932 Y45.518
G1 F300 X29.478 Y28.064 E0.15477
G0 F600 X29.478 Y28.226
G0 X28.196 Y28.196
G0 X28.064 Y28.064
G1 F300 X46.932 Y46.932 E0.16723
G0 F600 X46.804 Y46.804
G0 X45.518 Y46.774
G0 X45.518 Y46.932
G1 F300 X28.064 Y29.478 E0.17876
G0 F600 X28.226 Y29.478
G0 X28.226 Y30.892
G0 X28.064 Y30.892
G1 F300 X44.104 Y46.932 E0.18935
G0 F600 X44.104 Y46.774
G0 X42.689 Y46.774
G0 X42.689 Y46.932
G1 F300 X28.064 Y32.306 E0.19901
G0 F600 X28.226 Y32.306
G0 X28.226 Y33.721
G0 X28.064 Y33.721
G1 F300 X41.275 Y46.932 E0.20774
G0 F600 X41.275 Y46.774
G0 X39.861 Y46.774
G0 X39.861 Y46.932
G1 F300 X28.064 Y35.135 E0.21553
G0 F600 X28.226 Y35.135
G0 X28.226 Y36.549
G0 X28.064 Y36.549
G1 F300 X38.447 Y46.932 E0.22238
G0 F600 X38.447 Y46.774
G0 X37.033 Y46.774
G0 X37.033 Y46.932
G1 F300 X28.064 Y37.963 E0.22831
G0 F600 X28.226 Y37.963
G0 X28.226 Y39.377
G0 X28.064 Y39.377
G1 F300 X35.618 Y46.932 E0.2333
G0 F600 X35.618 Y46.774
G0 X34.204 Y46.774
G0 X34.204 Y46.932
G1 F300 X28.064 Y40.792 E0.23735
G0 F600 X28.226 Y40.792
G0 X28.226 Y42.206
G0 X28.064 Y42.206
G1 F300 X32.79 Y46.932 E0.24047
G0 F600 X32.79 Y46.774
G0 X31.376 Y46.774
G0 X31.376 Y46.932
G1 F300 X28.064 Y43.62 E0.24266
G0 F600 X28.226 Y43.62
G0 X28.226 Y45.034
G0 X28.064 Y45.034
G1 F300 X29.962 Y46.932 E0.24391
G0 F600 X29.962 Y46.774
G0 X28.547 Y46.774
G0 X28.547 Y46.932
G1 F300 X28.064 Y46.448 E0.24423
G0 F600 X29.126 Y45.874
;MESH:NONMESH
G0 X29.126 Y45.874 Z0.8
G0 X28.196 Y28.196
G0 X27.42 Y27.781
;TIME_ELAPSED:141.297193
;LAYER:1
M106 S255
;TYPE:FILL
;MESH:pyramid_23x15.stl
G1 F450 X27.781 Y27.42 E0.24463
G0 F900 X28.502 Y28.502
G0 X29.195 Y27.42
G1 F450 X27.42 Y29.195 E0.24658
G0 F900 X28.532 Y29.195
G0 X28.532 Y30.609
G0 X27.42 Y30.609
G1 F450 X30.609 Y27.42 E0.25009
G0 F900 X30.609 Y28.532
G0 X32.023 Y28.532
G0 X32.023 Y27.42
G1 F450 X27.42 Y32.023 E0.25516
G0 F900 X28.532 Y32.023
G0 X28.532 Y33.438
G0 X27.42 Y33.438
G1 F450 X33.438 Y27.42 E0.26178
G0 F900 X33.438 Y28.532
G0 X34.852 Y28.532
G0 X34.852 Y27.42
G1 F450 X27.42 Y34.852 E0.26996
G0 F900 X28.532 Y34.852
G0 X28.532 Y36.266
G0 X27.42 Y36.266
G1 F450 X36.266 Y27.42 E0.2797
G0 F900 X36.266 Y28.532
G0 X37.68 Y28.532
G0 X37.68 Y27.42
G1 F450 X27.42 Y37.68 E0.29099
G0 F900 X28.532 Y37.68
G0 X28.532 Y39.095
G0 X27.42 Y39.095
G1 F450 X39.095 Y27.42 E0.30384
G0 F900 X39.095 Y28.532
G0 X40.509 Y28.532
G0 X40.509 Y27.42
G1 F450 X27.42 Y40.509 E0.31825
G0 F900 X28.532 Y40.509
G0 X28.532 Y41.923
G0 X27.42 Y41.923
G1 F450 X41.923 Y27.42 E0.33421
G0 F900 X41.923 Y28.532
G0 X43.337 Y28.532
G0 X43.337 Y27.42
G1 F450 X27.42 Y43.337 E0.35173
G0 F900 X28.532 Y43.337
G0 X28.532 Y44.751
G0 X27.42 Y44.751
G1 F450 X44.751 Y27.42 E0.37081
G0 F900 X44.751 Y28.532
G0 X46.166 Y28.532
G0 X46.166 Y27.42
G1 F450 X27.42 Y46.166 E0.39144
G0 F900 X28.532 Y46.166
G0 X27.424 Y47.576
G1 F450 X47.576 Y27.424 E0.41362
G0 F900 X46.498 Y28.502
G0 X47.576 Y28.839
G1 F450 X28.838 Y47.576 E0.43425
G0 F900 X28.838 Y46.468
G0 X30.252 Y46.468
G0 X30.252 Y47.576
G1 F450 X47.576 Y30.253 E0.45332
G0 F900 X46.468 Y30.253
G0 X46.468 Y31.667
G0 X47.576 Y31.667
G1 F450 X31.666 Y47.576 E0.47083
G0 F900 X31.666 Y46.468
G0 X33.081 Y46.468
G0 X33.081 Y47.576
G1 F450 X47.576 Y33.081 E0.48678
G0 F900 X46.468 Y33.081
G0 X46.468 Y34.495
G0 X47.576 Y34.495
G1 F450 X34.495 Y47.576 E0.50118
G0 F900 X34.495 Y46.468
G0 X35.909 Y46.468
G0 X35.909 Y47.576
G1 F450 X47.576 Y35.91 E0.51402
G0 F900 X46.468 Y35.91
G0 X46.468 Y37.324
G0 X47.576 Y37.324
G1 F450 X37.323 Y47.576 E0.52531
G0 F900 X37.323 Y46.468
G0 X38.737 Y46.468
G0 X38.737 Y47.576
G1 F450 X47.576 Y38.738 E0.53503
G0 F900 X46.468 Y38.738
G0 X46.468 Y40.152
G0 X47.576 Y40.152
G1 F450 X40.152 Y47.576 E0.54321
G0 F900 X40.152 Y46.468
G0 X41.566 Y46.468
G0 X41.566 Y47.576
G1 F450 X47.576 Y41.567 E0.54982
G0 F900 X46.468 Y41.567
G0 X46.468 Y42.981
G0 X47.576 Y42.981
G1 F450 X42.98 Y47.576 E0.55488
G0 F900 X42.98 Y46.468
G0 X44.394 Y46.468
G0 X44.394 Y47.576
G1 F450 X47.576 Y44.395 E0.55838
G0 F900 X46.468 Y44.395
G0 X46.468 Y45.809
G0 X47.576 Y45.809
G1 F450 X45.808 Y47.576 E0.56033
G0 F900 X45.808 Y46.468
G0 X47.223 Y47.576
G1 F450 X47.576 Y47.223 E0.56071
G0 F900 X48.076 Y48.076
;TYPE:WALL-OUTER
G1 F450 X26.92 Y48.076 E0.57718
G1 X26.92 Y26.92 E0.59365
G1 X48.076 Y26.92 E0.61011
G1 X48.076 Y48.076 E0.62658
G0 F900 X47.576 Y48.076
G0 X45.568 Y45.861
;MESH:NONMESH
G0 F600 X45.568 Y45.861 Z1.3
G0 F900 X28.502 Y28.502
G0 X27.804 Y27.804
;TIME_ELAPSED:215.504095
;LAYER:2
;TYPE:FILL
;MESH:pyramid_23x15.stl
G1 F600 X47.192 Y47.192 E0.64792
G0 F1200 X46.114 Y46.114
G0 X47.192 Y45.778
G1 F600 X29.218 Y27.804 E0.6677
G0 F1200 X29.218 Y28.916
G0 X30.633 Y28.916
G0 X30.633 Y27.804
G1 F600 X47.192 Y44.364 E0.68593
G0 F1200 X46.084 Y44.364
G0 X46.084 Y42.95
G0 X47.192 Y42.95
G1 F600 X32.047 Y27.804 E0.7026
G0 F1200 X32.047 Y28.916
G0 X33.461 Y28.916
G0 X33.461 Y27.804
G1 F600 X47.192 Y41.535 E0.71771
G0 F1200 X46.084 Y41.535
G0 X46.084 Y40.121
G0 X47.192 Y40.121
G1 F600 X34.875 Y27.804 E0.73127
G0 F1200 X34.875 Y28.916
G0 X36.289 Y28.916
G0 X36.289 Y27.804
G1 F600 X47.192 Y38.707 E0.74327
G0 F1200 X46.084 Y38.707
G0 X46.084 Y37.293
G0 X47.192 Y37.293
G1 F600 X37.704 Y27.804 E0.75371
G0 F1200 X37.704 Y28.916
G0 X39.118 Y28.916
G0 X39.118 Y27.804
G1 F600 X47.192 Y35.879 E0.7626
G0 F1200 X46.084 Y35.879
G0 X46.084 Y34.464
G0 X47.192 Y34.464
G1 F600 X40.532 Y27.804 E0.76993
G0 F1200 X40.532 Y28.916
G0 X41.946 Y28.916
G0 X41.946 Y27.804
G1 F600 X47.192 Y33.05 E0.77571
G0 F1200 X46.084 Y33.05
G0 X46.084 Y31.636
G0 X47.192 Y31.636
G1 F600 X43.36 Y27.804 E0.77992
G0 F1200 X43.36 Y28.916
G0 X44.775 Y28.916
G0 X44.775 Y27.804
G1 F600 X47.192 Y30.222 E0.78259
G0 F1200 X46.084 Y30.222
G0 X46.114 Y28.886
G0 X47.192 Y28.808
G1 F600 X46.189 Y27.804 E0.78369
G0 F1200 X46.114 Y28.886
G0 X28.916 Y29.218
G0 X27.804 Y29.218
G1 F600 X45.777 Y47.192 E0.80347
G0 F1200 X45.777 Y46.084
G0 X44.363 Y46.084
G0 X44.363 Y47.192
G1 F600 X27.804 Y30.633 E0.8217
G0 F1200 X28.916 Y30.633
G0 X28.916 Y32.047
G0 X27.804 Y32.047
G1 F600 X42.949 Y47.192 E0.83837
G0 F1200 X42.949 Y46.084
G0 X41.535 Y46.084
G0 X41.535 Y47.192
G1 F600 X27.804 Y33.461 E0.85348
G0 F1200 X28.916 Y33.461
G0 X28.916 Y34.875
G0 X27.804 Y34.875
G1 F600 X40.121 Y47.192 E0.86704
G0 F1200 X40.121 Y46.084
G0 X38.706 Y46.084
G0 X38.706 Y47.192
G1 F600 X27.804 Y36.289 E0.87904
G0 F1200 X28.916 Y36.289
G0 X28.916 Y37.704
G0 X27.804 Y37.704
G1 F600 X37.292 Y47.192 E0.88948
G0 F1200 X37.292 Y46.084
G0 X35.878 Y46.084
G0 X35.878 Y47.192
G1 F600 X27.804 Y39.118 E0.89837
G0 F1200 X28.916 Y39.118
G0 X28.916 Y40.532
G0 X27.804 Y40.532
G1 F600 X34.464 Y47.192 E0.9057
G0 F1200 X34.464 Y46.084
G0 X33.049 Y46.084
G0 X33.049 Y47.192
G1 F600 X27.804 Y41.946 E0.91147
G0 F1200 X28.916 Y41.946
G0 X28.916 Y43.36
G0 X27.804 Y43.36
G1 F600 X31.635 Y47.192 E0.91569
G0 F1200 X31.635 Y46.084
G0 X30.221 Y46.084
G0 X30.221 Y47.192
G1 F600 X27.804 Y44.775 E0.91835
G0 F1200 X28.916 Y44.775
G0 X28.886 Y46.114
G0 X27.804 Y46.189
G1 F600 X28.807 Y47.192 E0.91946
G0 F1200 X28.886 Y46.114
G0 X47.114 Y47.114
G0 X47.692 Y47.692
;TYPE:WALL-OUTER
G1 F600 X27.304 Y47.692 E0.93532
G1 X27.304 Y27.304 E0.95119
G1 X47.692 Y27.304 E0.96706
G1 X47.692 Y47.692 E0.98293
G0 F1200 X47.192 Y47.692
G0 X45.184 Y45.477
;MESH:NONMESH
G0 F600 X45.184 Y45.477 Z1.8
G0 F1200 X28.886 Y28.886
G0 X28.188 Y28.427
;TIME_ELAPSED:269.336989
;LAYER:3
;TYPE:FILL
;MESH:pyramid_23x15.stl
G1 F600 X28.427 Y28.188 E0.98319
G0 F1200 X29.269 Y29.269
G0 X29.841 Y28.188
G1 F600 X28.188 Y29.841 E0.98501
G0 F1200 X29.299 Y29.841
G0 X29.299 Y31.256
G0 X28.188 Y31.256
G1 F600 X31.256 Y28.188 E0.98839
G0 F1200 X31.256 Y29.299
G0 X32.67 Y29.299
G0 X32.67 Y28.188
G1 F600 X28.188 Y32.67 E0.99332
G0 F1200 X29.299 Y32.67
G0 X29.299 Y34.084
G0 X28.188 Y34.084
G1 F600 X34.084 Y28.188 E0.99981
G0 F1200 X34.084 Y29.299
G0 X35.498 Y29.299
G0 X35.498 Y28.188
G1 F600 X28.188 Y35.498 E1.00786
G0 F1200 X29.299 Y35.498
G0 X29.299 Y36.912
G0 X28.188 Y36.912
G1 F600 X36.912 Y28.188 E1.01746
G0 F1200 X36.912 Y29.299
G0 X38.327 Y29.299
G0 X38.327 Y28.188
G1 F600 X28.188 Y38.327 E1.02862
G0 F1200 X29.299 Y38.327
G0 X29.299 Y39.741
G0 X28.188 Y39.741
G1 F600 X39.741 Y28.188 E1.04133
G0 F1200 X39.741 Y29.299
G0 X41.155 Y29.299
G0 X41.155 Y28.188
G1 F600 X28.188 Y41.155 E1.05561
G0 F1200 X29.299 Y41.155
G0 X29.299 Y42.569
G0 X28.188 Y42.569
G1 F600 X42.569 Y28.188 E1.07144
G0 F1200 X42.569 Y29.299
G0 X43.983 Y29.299
G0 X43.983 Y28.188
G1 F600 X28.188 Y43.983 E1.08882
G0 F1200 X29.299 Y43.983
G0 X29.299 Y45.398
G0 X28.188 Y45.398
G1 F600 X45.398 Y28.188 E1.10776
G0 F1200 X45.398 Y29.299
G0 X46.808 Y28.192
G1 F600 X28.192 Y46.808 E1.12825
G0 F1200 X29.269 Y45.731
G0 X29.606 Y46.808
G1 F600 X46.808 Y29.607 E1.14719
G0 F1200 X45.701 Y29.607
G0 X45.701 Y31.021
G0 X46.808 Y31.021
G1 F600 X31.02 Y46.808 E1.16457
G0 F1200 X31.02 Y45.701
G0 X32.434 Y45.701
G0 X32.434 Y46.808
G1 F600 X46.808 Y32.435 E1.18039
G0 F1200 X45.701 Y32.435
G0 X45.701 Y33.849
G0 X46.808 Y33.849
G1 F600 X33.848 Y46.808 E1.19465
G0 F1200 X33.848 Y45.701
G0 X35.263 Y45.701
G0 X35.263 Y46.808
G1 F600 X46.808 Y35.263 E1.20736
G0 F1200 X45.701 Y35.263
G0 X45.701 Y36.678
G0 X46.808 Y36.678
G1 F600 X36.677 Y46.808 E1.21851
G0 F1200 X36.677 Y45.701
G0 X38.091 Y45.701
G0 X38.091 Y46.808
G1 F600 X46.808 Y38.092 E1.2281
G0 F1200 X45.701 Y38.092
G0 X45.701 Y39.506
G0 X46.808 Y39.506
G1 F600 X39.505 Y46.808 E1.23614
G0 F1200 X39.505 Y45.701
G0 X40.92 Y45.701
G0 X40.92 Y46.808
G1 F600 X46.808 Y40.92 E1.24262
G0 F1200 X45.701 Y40.92
G0 X45.701 Y42.334
G0 X46.808 Y42.334
G1 F600 X42.334 Y46.808 E1.24755
G0 F1200 X42.334 Y45.701
G0 X43.748 Y45.701
G0 X43.748 Y46.808
G1 F600 X46.808 Y43.749 E1.25091
G0 F1200 X45.701 Y43.749
G0 X45.701 Y45.163
G0 X46.808 Y45.163
G1 F600 X45.162 Y46.808 E1.25272
G0 F1200 X45.162 Y45.701
G0 X46.576 Y46.808
G1 F600 X46.808 Y46.577 E1.25298
G0 F1200 X47.308 Y47.308
;TYPE:WALL-OUTER
G1 F600 X27.688 Y47.308 E1.26825
G1 X27.688 Y27.688 E1.28352
G1 X47.308 Y27.688 E1.29879
G1 X47.308 Y47.308 E1.31406
G0 F1200 X46.808 Y47.308
G0 X44.801 Y45.094
;MESH:NONMESH
G0 F600 X44.801 Y45.094 Z2.3
G0 F1200 X29.269 Y29.269
G0 X28.572 Y28.572
;TIME_ELAPSED:318.014598
;LAYER:4
;TYPE:FILL
;MESH:pyramid_23x15.stl
G1 F600 X46.428 Y46.428 E1.33371
G0 F1200 X45.348 Y45.348
G0 X45.014 Y46.428
G1 F600 X28.572 Y29.986 E1.35181
G0 F1200 X29.682 Y29.986
G0 X29.682 Y31.4
G0 X28.572 Y31.4
G1 F600 X43.599 Y46.428 E1.36835
G0 F1200 X43.599 Y45.318
G0 X42.185 Y45.318
G0 X42.185 Y46.428
G1 F600 X28.572 Y32.815 E1.38334
G0 F1200 X29.682 Y32.815
G0 X29.682 Y34.229
G0 X28.572 Y34.229
G1 F600 X40.771 Y46.428 E1.39676
G0 F1200 X40.771 Y45.318
G0 X39.357 Y45.318
G0 X39.357 Y46.428
G1 F600 X28.572 Y35.643 E1.40863
G0 F1200 X29.682 Y35.643
G0 X29.682 Y37.057
G0 X28.572 Y37.057
G1 F600 X37.943 Y46.428 E1.41895
G0 F1200 X37.943 Y45.318
G0 X36.528 Y45.318
G0 X36.528 Y46.428
G1 F600 X28.572 Y38.472 E1.42771
G0 F1200 X29.682 Y38.472
G0 X29.682 Y39.886
G0 X28.572 Y39.886
G1 F600 X35.114 Y46.428 E1.43491
G0 F1200 X35.114 Y45.318
G0 X33.7 Y45.318
G0 X33.7 Y46.428
G1 F600 X28.572 Y41.3 E1.44055
G0 F1200 X29.682 Y41.3
G0 X29.682 Y42.714
G0 X28.572 Y42.714
G1 F600 X32.286 Y46.428 E1.44464
G0 F1200 X32.286 Y45.318
G0 X30.872 Y45.318
G0 X30.872 Y46.428
G1 F600 X28.572 Y44.128 E1.44717
G0 F1200 X29.682 Y44.128
G0 X29.652 Y45.348
G0 X28.572 Y45.543
G1 F600 X29.457 Y46.428 E1.44814
G0 F1200 X29.652 Y45.348
G0 X45.318 Y45.014
G0 X46.428 Y45.014
G1 F600 X29.986 Y28.572 E1.46624
G0 F1200 X29.986 Y29.682
G0 X31.4 Y29.682
G0 X31.4 Y28.572
G1 F600 X46.428 Y43.599 E1.48278
G0 F1200 X45.318 Y43.599
G0 X45.318 Y42.185
G0 X46.428 Y42.185
G1 F600 X32.815 Y28.572 E1.49777
G0 F1200 X32.815 Y29.682
G0 X34.229 Y29.682
G0 X34.229 Y28.572
G1 F600 X46.428 Y40.771 E1.51119
G0 F1200 X45.318 Y40.771
G0 X45.318 Y39.357
G0 X46.428 Y39.357
G1 F600 X35.643 Y28.572 E1.52306
G0 F1200 X35.643 Y29.682
G0 X37.057 Y29.682
G0 X37.057 Y28.572
G1 F600 X46.428 Y37.943 E1.53338
G0 F1200 X45.318 Y37.943
G0 X45.318 Y36.528
G0 X46.428 Y36.528
G1 F600 X38.472 Y28.572 E1.54214
G0 F1200 X38.472 Y29.682
G0 X39.886 Y29.682
G0 X39.886 Y28.572
G1 F600 X46.428 Y35.114 E1.54934
G0 F1200 X45.318 Y35.114
G0 X45.318 Y33.7
G0 X46.428 Y33.7
G1 F600 X41.3 Y28.572 E1.55498
G0 F1200 X41.3 Y29.682
G0 X42.714 Y29.682
G0 X42.714 Y28.572
G1 F600 X46.428 Y32.286 E1.55907
G0 F1200 X45.318 Y32.286
G0 X45.318 Y30.872
G0 X46.428 Y30.872
G1 F600 X44.128 Y28.572 E1.5616
G0 F1200 X44.128 Y29.682
G0 X45.348 Y29.652
G0 X45.543 Y28.572
G1 F600 X46.428 Y29.457 E1.56257
G0 F1200 X45.348 Y29.652
G0 X46.348 Y46.348
G0 X46.928 Y46.928
;TYPE:WALL-OUTER
G1 F600 X28.072 Y46.928 E1.57725
G1 X28.072 Y28.072 E1.59193
G1 X46.928 Y28.072 E1.6066
G1 X46.928 Y46.928 E1.62128
G0 F1200 X46.428 Y46.928
G0 X44.418 Y44.711
;MESH:NONMESH
G0 F600 X44.418 Y44.711 Z2.8
G0 F1200 X29.682 Y30.488
G0 X28.956 Y30.488
;TIME_ELAPSED:364.859445
;LAYER:5
;TYPE:FILL
;MESH:pyramid_23x15.stl
G1 F600 X30.488 Y28.956 E1.62296
G0 F1200 X30.488 Y30.066
G0 X31.902 Y30.066
G0 X31.902 Y28.956
G1 F600 X28.956 Y31.902 E1.62621
G0 F1200 X30.066 Y31.902
G0 X30.066 Y33.316
G0 X28.956 Y33.316
G1 F600 X33.316 Y28.956 E1.631
G0 F1200 X33.316 Y30.066
G0 X34.73 Y30.066
G0 X34.73 Y28.956
G1 F600 X28.956 Y34.73 E1.63736
G0 F1200 X30.066 Y34.73
