;FLAVOR:Marlin
;TIME:1230
;Filament used: 0.00673408m
;Layer height: 0.5
;MINX:23
;MINY:23
;MINZ:0.3
;MAXX:52
;MAXY:52
;MAXZ:4.8
;TARGET_MACHINE.NAME:Unknown
;Generated with Cura_SteamEngine 5.9.0
M104 S40
M105
M109 S40
M82 ;absolute extrusion mode
;G28 ;Home
;G1 Z15.0 F6000 ;Move the platform down 15mm
;Prime the extruder
G92 E0
G1 F200 E3
G92 E0
G92 E0
G92 E0
G1 F60 E-0.5
;LAYER_COUNT:10
;LAYER:0
M107
;-------------------
;Nozzle purge
G1 F300 Z10
G1 F300 X20
G1 F0.94 E1
G92 E0
G1 F600 X0
G1 F300 Z0.3
;-------------------
;MESH:squarePrism_30x30x5.stl
G0 F600 X52 Y52 Z0.3
;TYPE:WALL-OUTER
G1 F60 E0
G1 F300 X23 Y52 E0.01354
G1 X23 Y23 E0.02708
G1 X52 Y23 E0.04063
G1 X52 Y52 E0.05417
G0 F600 X51.5 Y52
G0 X50.42 Y50.42
G0 X51.048 Y51.048
;TYPE:SKIN
G1 F300 X23.948 Y51.048 E0.06682
G1 X23.948 Y23.948 E0.07948
G1 X51.048 Y23.948 E0.09214
G1 X51.048 Y51.048 E0.10479
G0 F600 X50.42 Y50.42
G0 X50.39 Y25.092
G0 X50.548 Y25.092
G1 F300 X49.904 Y24.448 E0.10522
G0 F600 X49.904 Y24.61
G0 X48.49 Y24.61
G0 X48.49 Y24.448
G1 F300 X50.548 Y26.507 E0.10658
G0 F600 X50.39 Y26.507
G0 X50.39 Y27.921
G0 X50.548 Y27.921
G1 F300 X47.076 Y24.448 E0.10887
G0 F600 X47.076 Y24.61
G0 X45.661 Y24.61
G0 X45.661 Y24.448
G1 F300 X50.548 Y29.335 E0.1121
G0 F600 X50.39 Y29.335
G0 X50.39 Y30.749
G0 X50.548 Y30.749
G1 F300 X44.247 Y24.448 E0.11626
G0 F600 X44.247 Y24.61
G0 X42.833 Y24.61
G0 X42.833 Y24.448
G1 F300 X50.548 Y32.163 E0.12135
G0 F600 X50.39 Y32.163
G0 X50.39 Y33.578
G0 X50.548 Y33.578
G1 F300 X41.419 Y24.448 E0.12738
G0 F600 X41.419 Y24.61
G0 X40.005 Y24.61
G0 X40.005 Y24.448
G1 F300 X50.548 Y34.992 E0.13434
G0 F600 X50.39 Y34.992
G0 X50.39 Y36.406
G0 X50.548 Y36.406
G1 F300 X38.59 Y24.448 E0.14224
G0 F600 X38.59 Y24.61
G0 X37.176 Y24.61
G0 X37.176 Y24.448
G1 F300 X50.548 Y37.82 E0.15107
G0 F600 X50.39 Y37.82
G0 X50.39 Y39.235
G0 X50.548 Y39.235
G1 F300 X35.762 Y24.448 E0.16084
G0 F600 X35.762 Y24.61
G0 X34.348 Y24.61
G0 X34.348 Y24.448
G1 F300 X50.548 Y40.649 E0.17154
G0 F600 X50.39 Y40.649
G0 X50.39 Y42.063
G0 X50.548 Y42.063
G1 F300 X32.933 Y24.448 E0.18317
G0 F600 X32.933 Y24.61
G0 X31.519 Y24.61
G0 X31.519 Y24.448
G1 F300 X50.548 Y43.477 E0.19574
G0 F600 X50.39 Y43.477
G0 X50.39 Y44.891
G0 X50.548 Y44.891
G1 F300 X30.105 Y24.448 E0.20924
G0 F600 X30.105 Y24.61
G0 X28.691 Y24.61
G0 X28.691 Y24.448
G1 F300 X50.548 Y46.306 E0.22367
G0 F600 X50.39 Y46.306
G0 X50.39 Y47.72
G0 X50.548 Y47.72
G1 F300 X27.277 Y24.448 E0.23904
G0 F600 X27.277 Y24.61
G0 X25.862 Y24.61
G0 X25.862 Y24.448
G1 F300 X50.548 Y49.134 E0.25534
G0 F600 X50.39 Y49.134
G0 X50.42 Y50.42
G0 X50.548 Y50.548
G1 F300 X24.448 Y24.448 E0.27258
G0 F600 X24.58 Y24.58
G0 X24.61 Y25.862
G0 X24.448 Y25.862
G1 F300 X49.133 Y50.548 E0.28888
G0 F600 X49.133 Y50.39
G0 X47.719 Y50.39
G0 X47.719 Y50.548
G1 F300 X24.448 Y27.277 E0.30425
G0 F600 X24.61 Y27.277
G0 X24.61 Y28.691
G0 X24.448 Y28.691
G1 F300 X46.305 Y50.548 E0.31869
G0 F600 X46.305 Y50.39
G0 X44.891 Y50.39
G0 X44.891 Y50.548
G1 F300 X24.448 Y30.105 E0.33219
G0 F600 X24.61 Y30.105
G0 X24.61 Y31.519
G0 X24.448 Y31.519
G1 F300 X43.476 Y50.548 E0.34475
G0 F600 X43.476 Y50.39
G0 X42.062 Y50.39
G0 X42.062 Y50.548
G1 F300 X24.448 Y32.933 E0.35639
G0 F600 X24.61 Y32.933
G0 X24.61 Y34.348
G0 X24.448 Y34.348
G1 F300 X40.648 Y50.548 E0.36709
G0 F600 X40.648 Y50.39
G0 X39.234 Y50.39
G0 X39.234 Y50.548
G1 F300 X24.448 Y35.762 E0.37685
G0 F600 X24.61 Y35.762
G0 X24.61 Y37.176
G0 X24.448 Y37.176
G1 F300 X37.82 Y50.548 E0.38568
G0 F600 X37.82 Y50.39
G0 X36.405 Y50.39
G0 X36.405 Y50.548
G1 F300 X24.448 Y38.59 E0.39358
G0 F600 X24.61 Y38.59
G0 X24.61 Y40.005
G0 X24.448 Y40.005
G1 F300 X34.991 Y50.548 E0.40054
G0 F600 X34.991 Y50.39
G0 X33.577 Y50.39
G0 X33.577 Y50.548
G1 F300 X24.448 Y41.419 E0.40657
G0 F600 X24.61 Y41.419
G0 X24.61 Y42.833
G0 X24.448 Y42.833
G1 F300 X32.163 Y50.548 E0.41167
G0 F600 X32.163 Y50.39
G0 X30.749 Y50.39
G0 X30.749 Y50.548
G1 F300 X24.448 Y44.247 E0.41583
G0 F600 X24.61 Y44.247
G0 X24.61 Y45.661
G0 X24.448 Y45.661
G1 F300 X29.334 Y50.548 E0.41905
G0 F600 X29.334 Y50.39
G0 X27.92 Y50.39
G0 X27.92 Y50.548
G1 F300 X24.448 Y47.076 E0.42135
G0 F600 X24.61 Y47.076
G0 X24.61 Y48.49
G0 X24.448 Y48.49
G1 F300 X26.506 Y50.548 E0.42271
G0 F600 X26.506 Y50.39
G0 X25.092 Y50.39
G0 X25.092 Y50.548
G1 F300 X24.448 Y49.904 E0.42313
G0 F600 X25.51 Y49.49
;MESH:NONMESH
G0 X25.51 Y49.49 Z0.8
G0 X24.61 Y24.63
G0 X23.5 Y24.63
;TIME_ELAPSED:221.589966
;LAYER:1
M106 S255
;TYPE:FILL
;MESH:squarePrism_30x30x5.stl
G1 F450 X24.63 Y23.5 E0.42437
G0 F900 X24.63 Y24.61
G0 X26.044 Y24.61
G0 X26.044 Y23.5
G1 F450 X23.5 Y26.044 E0.42717
G0 F900 X24.61 Y26.044
G0 X24.61 Y27.458
G0 X23.5 Y27.458
G1 F450 X27.458 Y23.5 E0.43153
G0 F900 X27.458 Y24.61
G0 X28.873 Y24.61
G0 X28.873 Y23.5
G1 F450 X23.5 Y28.873 E0.43745
G0 F900 X24.61 Y28.873
G0 X24.61 Y30.287
G0 X23.5 Y30.287
G1 F450 X30.287 Y23.5 E0.44492
G0 F900 X30.287 Y24.61
G0 X31.701 Y24.61
G0 X31.701 Y23.5
G1 F450 X23.5 Y31.701 E0.45394
G0 F900 X24.61 Y31.701
G0 X24.61 Y33.115
G0 X23.5 Y33.115
G1 F450 X33.115 Y23.5 E0.46453
G0 F900 X33.115 Y24.61
G0 X34.529 Y24.61
G0 X34.529 Y23.5
G1 F450 X23.5 Y34.529 E0.47666
G0 F900 X24.61 Y34.529
G0 X24.61 Y35.944
G0 X23.5 Y35.944
G1 F450 X35.944 Y23.5 E0.49036
G0 F900 X35.944 Y24.61
G0 X37.358 Y24.61
G0 X37.358 Y23.5
G1 F450 X23.5 Y37.358 E0.50562
G0 F900 X24.61 Y37.358
G0 X24.61 Y38.772
G0 X23.5 Y38.772
G1 F450 X38.772 Y23.5 E0.52242
G0 F900 X38.772 Y24.61
G0 X40.186 Y24.61
G0 X40.186 Y23.5
G1 F450 X23.5 Y40.186 E0.54079
G0 F900 X24.61 Y40.186
G0 X24.61 Y41.601
G0 X23.5 Y41.601
G1 F450 X41.601 Y23.5 E0.56071
G0 F900 X41.601 Y24.61
G0 X43.015 Y24.61
G0 X43.015 Y23.5
G1 F450 X23.5 Y43.015 E0.58219
G0 F900 X24.61 Y43.015
G0 X24.61 Y44.429
G0 X23.5 Y44.429
G1 F450 X44.429 Y23.5 E0.60523
G0 F900 X44.429 Y24.61
G0 X45.843 Y24.61
G0 X45.843 Y23.5
G1 F450 X23.5 Y45.843 E0.62982
G0 F900 X24.61 Y45.843
G0 X24.61 Y47.257
G0 X23.5 Y47.257
G1 F450 X47.257 Y23.5 E0.65597
G0 F900 X47.257 Y24.61
G0 X48.672 Y24.61
G0 X48.672 Y23.5
G1 F450 X23.5 Y48.672 E0.68368
G0 F900 X24.61 Y48.672
G0 X24.61 Y50.086
G0 X23.5 Y50.086
G1 F450 X50.086 Y23.5 E0.71294
G0 F900 X50.086 Y24.61
G0 X51.5 Y23.5
G1 F450 X23.5 Y51.5 E0.74376
G0 F900 X24.58 Y50.42
G0 X24.914 Y51.5
G1 F450 X51.5 Y24.914 E0.77302
G0 F900 X50.39 Y24.914
G0 X50.39 Y26.328
G0 X51.5 Y26.328
G1 F450 X26.328 Y51.5 E0.80073
G0 F900 X26.328 Y50.39
G0 X27.743 Y50.39
G0 X27.743 Y51.5
G1 F450 X51.5 Y27.743 E0.82688
G0 F900 X50.39 Y27.743
G0 X50.39 Y29.157
G0 X51.5 Y29.157
G1 F450 X29.157 Y51.5 E0.85147
G0 F900 X29.157 Y50.39
G0 X30.571 Y50.39
G0 X30.571 Y51.5
G1 F450 X51.5 Y30.571 E0.87451
G0 F900 X50.39 Y30.571
G0 X50.39 Y31.985
G0 X51.5 Y31.985
G1 F450 X31.985 Y51.5 E0.89599
G0 F900 X31.985 Y50.39
G0 X33.399 Y50.39
G0 X33.399 Y51.5
G1 F450 X51.5 Y33.399 E0.91591
G0 F900 X50.39 Y33.399
G0 X50.39 Y34.814
G0 X51.5 Y34.814
G1 F450 X34.814 Y51.5 E0.93428
G0 F900 X34.814 Y50.39
G0 X36.228 Y50.39
G0 X36.228 Y51.5
G1 F450 X51.5 Y36.228 E0.95109
G0 F900 X50.39 Y36.228
G0 X50.39 Y37.642
G0 X51.5 Y37.642
G1 F450 X37.642 Y51.5 E0.96634
G0 F900 X37.642 Y50.39
G0 X39.056 Y50.39
G0 X39.056 Y51.5
G1 F450 X51.5 Y39.056 E0.98004
G0 F900 X50.39 Y39.056
G0 X50.39 Y40.471
G0 X51.5 Y40.471
G1 F450 X40.471 Y51.5 E0.99218
G0 F900 X40.471 Y50.39
G0 X41.885 Y50.39
G0 X41.885 Y51.5
G1 F450 X51.5 Y41.885 E1.00276
G0 F900 X50.39 Y41.885
G0 X50.39 Y43.299
G0 X51.5 Y43.299
G1 F450 X43.299 Y51.5 E1.01179
G0 F900 X43.299 Y50.39
G0 X44.713 Y50.39
G0 X44.713 Y51.5
G1 F450 X51.5 Y44.713 E1.01926
G0 F900 X50.39 Y44.713
G0 X50.39 Y46.127
G0 X51.5 Y46.127
G1 F450 X46.127 Y51.5 E1.02517
G0 F900 X46.127 Y50.39
G0 X47.542 Y50.39
G0 X47.542 Y51.5
G1 F450 X51.5 Y47.542 E1.02953
G0 F900 X50.39 Y47.542
G0 X50.39 Y48.956
G0 X51.5 Y48.956
G1 F450 X48.956 Y51.5 E1.03233
G0 F900 X48.956 Y50.39
G0 X50.37 Y50.39
G0 X50.37 Y51.5
G1 F450 X51.5 Y50.37 E1.03357
G0 F900 X50.39 Y50.37
G0 X51.42 Y51.42
G0 X52 Y52
;TYPE:WALL-OUTER
G1 F450 X23 Y52 E1.05614
G1 X23 Y23 E1.07871
G1 X52 Y23 E1.10128
G1 X52 Y52 E1.12385
G0 F900 X51.5 Y52
G0 X49.49 Y49.783
;MESH:NONMESH
G0 F600 X49.49 Y49.783 Z1.3
G0 F900 X24.58 Y24.58
G0 X23.5 Y23.5
;TIME_ELAPSED:353.827617
;LAYER:2
;TYPE:FILL
;MESH:squarePrism_30x30x5.stl
G1 F600 X51.5 Y51.5 E1.15467
G0 F1200 X50.42 Y50.42
G0 X50.086 Y51.5
G1 F600 X23.5 Y24.914 E1.18394
G0 F1200 X24.61 Y24.914
G0 X24.61 Y26.328
G0 X23.5 Y26.328
G1 F600 X48.672 Y51.5 E1.21164
G0 F1200 X48.672 Y50.39
G0 X47.257 Y50.39
G0 X47.257 Y51.5
G1 F600 X23.5 Y27.743 E1.23779
G0 F1200 X24.61 Y27.743
G0 X24.61 Y29.157
G0 X23.5 Y29.157
G1 F600 X45.843 Y51.5 E1.26238
G0 F1200 X45.843 Y50.39
G0 X44.429 Y50.39
G0 X44.429 Y51.5
G1 F600 X23.5 Y30.571 E1.28542
G0 F1200 X24.61 Y30.571
G0 X24.61 Y31.985
G0 X23.5 Y31.985
G1 F600 X43.015 Y51.5 E1.3069
G0 F1200 X43.015 Y50.39
G0 X41.601 Y50.39
G0 X41.601 Y51.5
G1 F600 X23.5 Y33.399 E1.32682
G0 F1200 X24.61 Y33.399
G0 X24.61 Y34.814
G0 X23.5 Y34.814
G1 F600 X40.186 Y51.5 E1.34519
G0 F1200 X40.186 Y50.39
G0 X38.772 Y50.39
G0 X38.772 Y51.5
G1 F600 X23.5 Y36.228 E1.362
G0 F1200 X24.61 Y36.228
G0 X24.61 Y37.642
G0 X23.5 Y37.642
G1 F600 X37.358 Y51.5 E1.37725
G0 F1200 X37.358 Y50.39
G0 X35.944 Y50.39
G0 X35.944 Y51.5
G1 F600 X23.5 Y39.056 E1.39095
G0 F1200 X24.61 Y39.056
G0 X24.61 Y40.471
G0 X23.5 Y40.471
G1 F600 X34.529 Y51.5 E1.40309
G0 F1200 X34.529 Y50.39
G0 X33.115 Y50.39
G0 X33.115 Y51.5
G1 F600 X23.5 Y41.885 E1.41367
G0 F1200 X24.61 Y41.885
G0 X24.61 Y43.299
G0 X23.5 Y43.299
G1 F600 X31.701 Y51.5 E1.4227
G0 F1200 X31.701 Y50.39
G0 X30.287 Y50.39
G0 X30.287 Y51.5
G1 F600 X23.5 Y44.713 E1.43017
G0 F1200 X24.61 Y44.713
G0 X24.61 Y46.127
G0 X23.5 Y46.127
G1 F600 X28.873 Y51.5 E1.43608
G0 F1200 X28.873 Y50.39
G0 X27.458 Y50.39
G0 X27.458 Y51.5
G1 F600 X23.5 Y47.542 E1.44044
G0 F1200 X24.61 Y47.542
G0 X24.61 Y48.956
G0 X23.5 Y48.956
G1 F600 X26.044 Y51.5 E1.44324
G0 F1200 X26.044 Y50.39
G0 X24.63 Y50.39
G0 X24.63 Y51.5
G1 F600 X23.5 Y50.37 E1.44448
G0 F1200 X24.61 Y50.37
G0 X24.914 Y24.61
G0 X24.914 Y23.5
G1 F600 X51.5 Y50.086 E1.47375
G0 F1200 X50.39 Y50.086
G0 X50.39 Y48.672
G0 X51.5 Y48.672
G1 F600 X26.328 Y23.5 E1.50145
G0 F1200 X26.328 Y24.61
G0 X27.743 Y24.61
G0 X27.743 Y23.5
G1 F600 X51.5 Y47.257 E1.5276
G0 F1200 X50.39 Y47.257
G0 X50.39 Y45.843
G0 X51.5 Y45.843
G1 F600 X29.157 Y23.5 E1.55219
G0 F1200 X29.157 Y24.61
G0 X30.571 Y24.61
G0 X30.571 Y23.5
G1 F600 X51.5 Y44.429 E1.57523
G0 F1200 X50.39 Y44.429
G0 X50.39 Y43.015
G0 X51.5 Y43.015
G1 F600 X31.985 Y23.5 E1.59671
G0 F1200 X31.985 Y24.61
G0 X33.399 Y24.61
G0 X33.399 Y23.5
G1 F600 X51.5 Y41.601 E1.61663
G0 F1200 X50.39 Y41.601
G0 X50.39 Y40.186
G0 X51.5 Y40.186
G1 F600 X34.814 Y23.5 E1.635
G0 F1200 X34.814 Y24.61
G0 X36.228 Y24.61
G0 X36.228 Y23.5
G1 F600 X51.5 Y38.772 E1.65181
G0 F1200 X50.39 Y38.772
G0 X50.39 Y37.358
G0 X51.5 Y37.358
G1 F600 X37.642 Y23.5 E1.66706
G0 F1200 X37.642 Y24.61
G0 X39.056 Y24.61
G0 X39.056 Y23.5
G1 F600 X51.5 Y35.944 E1.68076
G0 F1200 X50.39 Y35.944
G0 X50.39 Y34.529
G0 X51.5 Y34.529
G1 F600 X40.471 Y23.5 E1.6929
G0 F1200 X40.471 Y24.61
G0 X41.885 Y24.61
G0 X41.885 Y23.5
G1 F600 X51.5 Y33.115 E1.70348
G0 F1200 X50.39 Y33.115
G0 X50.39 Y31.701
G0 X51.5 Y31.701
G1 F600 X43.299 Y23.5 E1.71251
G0 F1200 X43.299 Y24.61
G0 X44.713 Y24.61
G0 X44.713 Y23.5
G1 F600 X51.5 Y30.287 E1.71998
G0 F1200 X50.39 Y30.287
G0 X50.39 Y28.873
G0 X51.5 Y28.873
G1 F600 X46.127 Y23.5 E1.72589
G0 F1200 X46.127 Y24.61
G0 X47.542 Y24.61
G0 X47.542 Y23.5
G1 F600 X51.5 Y27.458 E1.73025
G0 F1200 X50.39 Y27.458
G0 X50.39 Y26.044
G0 X51.5 Y26.044
G1 F600 X48.956 Y23.5 E1.73305
G0 F1200 X48.956 Y24.61
G0 X50.37 Y24.61
G0 X50.37 Y23.5
G1 F600 X51.5 Y24.63 E1.73429
G0 F1200 X50.39 Y24.63
G0 X51.42 Y51.42
G0 X52 Y52
;TYPE:WALL-OUTER
G1 F600 X23 Y52 E1.75686
G1 X23 Y23 E1.77944
G1 X52 Y23 E1.80201
G1 X52 Y52 E1.82458
G0 F1200 X51.5 Y52
G0 X49.49 Y49.783
;MESH:NONMESH
G0 F600 X49.49 Y49.783 Z1.8
G0 F1200 X24.61 Y24.63
G0 X23.5 Y24.63
;TIME_ELAPSED:455.608499
;LAYER:3
;TYPE:FILL
;MESH:squarePrism_30x30x5.stl
G1 F600 X24.63 Y23.5 E1.82582
G0 F1200 X24.63 Y24.61
G0 X26.044 Y24.61
G0 X26.044 Y23.5
G1 F600 X23.5 Y26.044 E1.82862
G0 F1200 X24.61 Y26.044
G0 X24.61 Y27.458
G0 X23.5 Y27.458
G1 F600 X27.458 Y23.5 E1.83298
G0 F1200 X27.458 Y24.61
G0 X28.873 Y24.61
G0 X28.873 Y23.5
G1 F600 X23.5 Y28.873 E1.83889
G0 F1200 X24.61 Y28.873
G0 X24.61 Y30.287
G0 X23.5 Y30.287
G1 F600 X30.287 Y23.5 E1.84636
G0 F1200 X30.287 Y24.61
G0 X31.701 Y24.61
G0 X31.701 Y23.5
G1 F600 X23.5 Y31.701 E1.85539
G0 F1200 X24.61 Y31.701
G0 X24.61 Y33.115
G0 X23.5 Y33.115
G1 F600 X33.115 Y23.5 E1.86597
G0 F1200 X33.115 Y24.61
G0 X34.529 Y24.61
G0 X34.529 Y23.5
G1 F600 X23.5 Y34.529 E1.87811
G0 F1200 X24.61 Y34.529
G0 X24.61 Y35.944
G0 X23.5 Y35.944
G1 F600 X35.944 Y23.5 E1.89181
G0 F1200 X35.944 Y24.61
G0 X37.358 Y24.61
G0 X37.358 Y23.5
G1 F600 X23.5 Y37.358 E1.90706
G0 F1200 X24.61 Y37.358
G0 X24.61 Y38.772
G0 X23.5 Y38.772
G1 F600 X38.772 Y23.5 E1.92387
G0 F1200 X38.772 Y24.61
G0 X40.186 Y24.61
G0 X40.186 Y23.5
G1 F600 X23.5 Y40.186 E1.94224
G0 F1200 X24.61 Y40.186
G0 X24.61 Y41.601
G0 X23.5 Y41.601
G1 F600 X41.601 Y23.5 E1.96216
G0 F1200 X41.601 Y24.61
G0 X43.015 Y24.61
G0 X43.015 Y23.5
G1 F600 X23.5 Y43.015 E1.98364
G0 F1200 X24.61 Y43.015
G0 X24.61 Y44.429
G0 X23.5 Y44.429
G1 F600 X44.429 Y23.5 E2.00668
G0 F1200 X44.429 Y24.61
G0 X45.843 Y24.61
G0 X45.843 Y23.5
G1 F600 X23.5 Y45.843 E2.03127
G0 F1200 X24.61 Y45.843
G0 X24.61 Y47.257
G0 X23.5 Y47.257
G1 F600 X47.257 Y23.5 E2.05742
G0 F1200 X47.257 Y24.61
G0 X48.672 Y24.61
G0 X48.672 Y23.5
G1 F600 X23.5 Y48.672 E2.08512
G0 F1200 X24.61 Y48.672
G0 X24.61 Y50.086
G0 X23.5 Y50.086
G1 F600 X50.086 Y23.5 E2.11439
G0 F1200 X50.086 Y24.61
G0 X51.5 Y23.5
G1 F600 X23.5 Y51.5 E2.14521
G0 F1200 X24.58 Y50.42
G0 X24.914 Y51.5
G1 F600 X51.5 Y24.914 E2.17447
G0 F1200 X50.39 Y24.914
G0 X50.39 Y26.328
G0 X51.5 Y26.328
G1 F600 X26.328 Y51.5 E2.20218
G0 F1200 X26.328 Y50.39
G0 X27.743 Y50.39
G0 X27.743 Y51.5
G1 F600 X51.5 Y27.743 E2.22832
G0 F1200 X50.39 Y27.743
G0 X50.39 Y29.157
G0 X51.5 Y29.157
G1 F600 X29.157 Y51.5 E2.25292
G0 F1200 X29.157 Y50.39
G0 X30.571 Y50.39
G0 X30.571 Y51.5
G1 F600 X51.5 Y30.571 E2.27595
G0 F1200 X50.39 Y30.571
G0 X50.39 Y31.985
G0 X51.5 Y31.985
G1 F600 X31.985 Y51.5 E2.29743
G0 F1200 X31.985 Y50.39
G0 X33.399 Y50.39
G0 X33.399 Y51.5
G1 F600 X51.5 Y33.399 E2.31736
G0 F1200 X50.39 Y33.399
G0 X50.39 Y34.814
G0 X51.5 Y34.814
G1 F600 X34.814 Y51.5 E2.33572
G0 F1200 X34.814 Y50.39
G0 X36.228 Y50.39
G0 X36.228 Y51.5
G1 F600 X51.5 Y36.228 E2.35253
G0 F1200 X50.39 Y36.228
G0 X50.39 Y37.642
G0 X51.5 Y37.642
G1 F600 X37.642 Y51.5 E2.36779
G0 F1200 X37.642 Y50.39
G0 X39.056 Y50.39
G0 X39.056 Y51.5
G1 F600 X51.5 Y39.056 E2.38148
G0 F1200 X50.39 Y39.056
G0 X50.39 Y40.471
G0 X51.5 Y40.471
G1 F600 X40.471 Y51.5 E2.39362
G0 F1200 X40.471 Y50.39
G0 X41.885 Y50.39
G0 X41.885 Y51.5
G1 F600 X51.5 Y41.885 E2.40421
G0 F1200 X50.39 Y41.885
G0 X50.39 Y43.299
G0 X51.5 Y43.299
G1 F600 X43.299 Y51.5 E2.41323
G0 F1200 X43.299 Y50.39
G0 X44.713 Y50.39
G0 X44.713 Y51.5
G1 F600 X51.5 Y44.713 E2.4207
G0 F1200 X50.39 Y44.713
G0 X50.39 Y46.127
G0 X51.5 Y46.127
G1 F600 X46.127 Y51.5 E2.42662
G0 F1200 X46.127 Y50.39
G0 X47.542 Y50.39
G0 X47.542 Y51.5
G1 F600 X51.5 Y47.542 E2.43097
G0 F1200 X50.39 Y47.542
G0 X50.39 Y48.956
G0 X51.5 Y48.956
G1 F600 X48.956 Y51.5 E2.43377
G0 F1200 X48.956 Y50.39
G0 X50.37 Y50.39
