;FLAVOR:Marlin
;TIME:497
;Filament used: 0.00179366m
;Layer height: 0.5
;MINX:18.604
;MINY:19.519
;MINZ:0.3
;MAXX:56.13
;MAXY:55.62
;MAXZ:1.8
;TARGET_MACHINE.NAME:Unknown
;Generated with Cura_SteamEngine 5.9.0
M104 S40
M105
M109 S40
M82 ;absolute extrusion mode
;G28 ;Home
;G1 Z15.0 F6000 ;Move the platform down 15mm
;Prime the extruder
G92 E0
G1 F200 E3
G92 E0
G92 E0
G92 E0
G1 F60 E-0.5
;LAYER_COUNT:4
;LAYER:0
M107
;-------------------
;Nozzle purge
G1 F300 Z10
G1 F300 X20
G1 F0.94 E1
G92 E0
G1 F600 X0
G1 F300 Z0.3
;-------------------
;MESH:UTokyo on Ritz 2mm.stl
G0 F600 X20.133 Y32.224 Z0.3
;TYPE:WALL-OUTER
G1 F60 E0
G1 F270.8 X20.043 Y33.197 E0.00051
G1 F264.6 X20.06 Y33.672 E0.00076
G1 F261.6 X19.888 Y33.793 E0.00087
G1 X18.859 Y33.29 E0.00148
G1 F267.9 X19.06 Y32.028 E0.00215
G1 F279.3 X19.243 Y31.185 E0.00258
G1 F290.1 X19.461 Y30.37 E0.00299
G1 F301.8 X19.715 Y29.552 E0.00339
G1 F313.8 X20.005 Y28.749 E0.00377
G1 F328.2 X20.328 Y27.958 E0.00414
G1 F340.1 X20.596 Y27.398 E0.00439
G1 F307.1 X20.803 Y27.219 E0.00452
G1 F217.1 X21.421 Y26.707 E0.00503
G1 X21.384 Y27.499 E0.00555
G1 F307.1 X21.387 Y27.761 E0.00566
G1 F340.1 X21.15 Y28.301 E0.00591
G1 F327.2 X20.846 Y29.182 E0.00631
G1 F312.8 X20.633 Y29.885 E0.00664
G1 F301.5 X20.443 Y30.612 E0.00699
G1 F292.4 X20.313 Y31.187 E0.00727
G1 F280.9 X20.133 Y32.224 E0.00779
G0 F600 X20.087 Y32.721
G1 F60 E-0.49221
G0 F600 X19.546 Y32.69
G0 X21.287 Y33.287
G0 X27.281 Y36.414
G0 X27.641 Y38.071
G0 X38.233 Y41.021
G0 X45.948 Y43.546
G0 X44.571 Y44.631
G1 F60 E0.00779
G1 F300 X44.349 Y44.653 E0.0079
G1 X43.955 Y44.898 E0.00811
G1 X43.854 Y45.072 E0.00821
G1 X43.825 Y45.327 E0.00833
G1 X44.359 Y46.591 E0.00897
G1 X44.79 Y47.519 E0.00945
G1 X45.248 Y48.436 E0.00992
G1 X45.738 Y49.356 E0.01041
G1 X46.258 Y50.261 E0.0109
G1 X46.812 Y51.173 E0.0114
G1 X47.396 Y52.076 E0.0119
G1 X47.958 Y52.886 E0.01236
G1 X46.858 Y53.483 E0.01294
G1 X46.029 Y53.884 E0.01337
G1 X45.21 Y54.231 E0.01379
G1 X44.371 Y54.547 E0.01421
G1 X43.518 Y54.82 E0.01463
G1 X42.64 Y55.058 E0.01505
G1 X41.774 Y55.249 E0.01547
G1 X40.892 Y55.405 E0.01588
G1 X40.005 Y55.518 E0.0163
G1 X39.1 Y55.588 E0.01672
G1 X38.202 Y55.62 E0.01714
G1 X36.871 Y55.602 E0.01777
G1 X36.86 Y54.756 E0.01816
G1 X36.872 Y53.539 E0.01873
G1 X36.924 Y51.812 E0.01954
G1 X37.016 Y49.824 E0.02047
G1 X37.174 Y47.326 E0.02163
G1 X37.37 Y44.736 E0.02285
G1 X37.466 Y43.651 E0.02336
G1 X37.337 Y43.354 E0.02351
G1 X37.16 Y43.225 E0.02361
G1 X36.75 Y43.148 E0.0238
G1 X36.576 Y43.174 E0.02389
G1 X36.352 Y43.327 E0.02401
G1 X36.262 Y43.474 E0.02409
G1 X35.713 Y45.896 E0.02525
G1 X35.275 Y47.655 E0.0261
G1 X34.858 Y49.234 E0.02686
G1 X34.436 Y50.681 E0.02757
G1 X34.073 Y51.843 E0.02813
G1 X33.752 Y52.804 E0.02861
G1 X33.338 Y53.909 E0.02916
G1 X32.909 Y54.96 E0.02969
G1 X31.6 Y54.539 E0.03033
G1 X30.771 Y54.231 E0.03074
G1 X29.968 Y53.885 E0.03115
G1 X29.168 Y53.498 E0.03157
G1 X28.376 Y53.073 E0.03199
G1 X27.615 Y52.616 E0.0324
G1 X26.886 Y52.133 E0.03281
G1 X26.161 Y51.603 E0.03323
G1 X25.471 Y51.045 E0.03364
G1 X24.804 Y50.46 E0.03406
G1 X24.169 Y49.845 E0.03447
G1 X23.314 Y48.934 E0.03505
G1 X24.137 Y48.316 E0.03554
G1 X24.913 Y47.706 E0.036
G1 X25.532 Y47.182 E0.03637
G1 X26.08 Y46.688 E0.03672
G1 X26.712 Y46.076 E0.03713
G1 X29.587 Y43.201 E0.03903
G1 X29.688 Y42.917 E0.03917
G1 X29.598 Y42.604 E0.03932
G1 X29.346 Y42.313 E0.0395
G1 X29.205 Y42.245 E0.03957
G1 X29.031 Y42.224 E0.03966
G1 X28.879 Y42.257 E0.03973
G1 X24.989 Y44.522 E0.04183
G1 X24.255 Y44.925 E0.04222
G1 X23.781 Y45.164 E0.04247
G1 X23.076 Y45.48 E0.04283
G1 X21.342 Y46.226 E0.04371
G1 X20.656 Y44.984 E0.04437
G1 X20.662 Y44.972 E0.04438
G1 X20.351 Y44.326 E0.04472
G1 X20.007 Y43.542 E0.04512
G1 X19.703 Y42.746 E0.04551
G1 X19.41 Y41.869 E0.04595
G1 X19.181 Y41.066 E0.04634
G1 X19.006 Y40.322 E0.04669
G1 X18.843 Y39.471 E0.0471
G1 X18.71 Y38.587 E0.04751
G1 X18.604 Y37.529 E0.04801
G1 X19.523 Y37.689 E0.04845
G1 X21.745 Y38.023 E0.0495
G1 X23.017 Y38.02 E0.05009
G1 X24.004 Y37.992 E0.05055
G1 X24.965 Y37.923 E0.051
G1 X25.686 Y37.846 E0.05134
G1 X26.509 Y37.737 E0.05173
G1 X27.505 Y37.557 E0.0522
G1 X28.133 Y37.402 E0.0525
G1 X28.884 Y37.17 E0.05287
G1 X29.945 Y36.723 E0.05341
G1 X30.613 Y36.365 E0.05376
G1 X31.136 Y36.048 E0.05405
G1 X31.651 Y35.704 E0.05434
G1 X32.18 Y35.316 E0.05464
G1 X32.911 Y34.714 E0.05508
G1 X33.336 Y34.347 E0.05535
G1 X33.79 Y33.914 E0.05564
G1 X34.213 Y33.475 E0.05592
G1 X34.618 Y33.006 E0.05621
G1 X34.986 Y32.538 E0.05649
G1 X35.334 Y32.05 E0.05677
G1 X35.677 Y31.514 E0.05707
G1 X35.994 Y30.966 E0.05736
G1 X36.307 Y30.356 E0.05768
G1 X36.627 Y29.519 E0.0581
G1 X36.899 Y28.431 E0.05863
G1 X37.06 Y27.33 E0.05915
G1 X37.072 Y26.129 E0.05971
G1 X37.031 Y25.707 E0.0599
G1 F266.4 X37.075 Y24.93 E0.06031
G1 F234.6 X37.092 Y24.874 E0.06035
G1 F200 X37.178 Y24.296 E0.06076
G1 F189.4 X37.632 Y24.74 E0.06123
G1 F242.7 X38.085 Y25.422 E0.0617
G1 F300 X38.463 Y26.342 E0.06216
G1 X38.841 Y27.352 E0.06267
G1 X39.231 Y28.476 E0.06322
G1 X39.559 Y29.295 E0.06364
G1 X39.885 Y30.046 E0.06402
G1 X40.277 Y30.858 E0.06444
G1 X40.648 Y31.568 E0.06481
G1 X41.018 Y32.213 E0.06516
G1 X41.395 Y32.82 E0.06549
G1 X41.987 Y33.684 E0.06598
G1 X42.55 Y34.367 E0.0664
G1 X42.925 Y34.782 E0.06666
G1 X43.275 Y35.277 E0.06694
G1 X43.682 Y35.797 E0.06725
G1 X44.127 Y36.32 E0.06757
G1 X44.593 Y36.824 E0.06789
G1 X45.109 Y37.333 E0.06823
G1 X45.643 Y37.819 E0.06857
G1 X46.217 Y38.303 E0.06892
G1 X46.837 Y38.784 E0.06928
G1 X47.485 Y39.247 E0.06966
G1 X48.177 Y39.712 E0.07004
G1 X48.905 Y40.162 E0.07044
G1 X49.852 Y40.726 E0.07096
G1 X50.595 Y41.135 E0.07136
G1 X51.33 Y41.507 E0.07174
G1 X52.073 Y41.849 E0.07212
G1 X52.833 Y42.169 E0.07251
G1 X53.605 Y42.457 E0.07289
G1 X54.385 Y42.719 E0.07328
G1 X55.162 Y42.948 E0.07365
G1 X56.13 Y43.201 E0.07412
G1 X55.661 Y44.291 E0.07468
G1 X55.34 Y44.95 E0.07502
G1 X55.345 Y44.957 E0.07502
G1 X54.81 Y45.925 E0.07554
G1 X54.39 Y46.623 E0.07592
G1 X53.894 Y47.36 E0.07633
G1 X53.372 Y48.074 E0.07675
G1 X52.814 Y48.76 E0.07716
G1 X52.225 Y49.423 E0.07757
G1 X51.609 Y50.059 E0.07799
G1 X50.622 Y50.98 E0.07862
G1 X49.994 Y50.419 E0.07901
G1 X48.735 Y49.359 E0.07978
G1 X48.159 Y48.807 E0.08015
G1 X47.794 Y48.404 E0.08041
G1 X47.182 Y47.685 E0.08085
G1 X46.28 Y46.567 E0.08152
G1 X44.838 Y44.738 E0.08261
G1 X44.571 Y44.631 E0.08274
G0 F600 X44.349 Y44.653
G0 X44.114 Y44.799
G0 X42.19 Y45.556
G0 X37.538 Y25.492
G0 X37.178 Y24.296
G1 F185.4 X36.88 Y23.574 E0.08333
G1 F201.6 X36.445 Y22.788 E0.08395
G1 F214.9 X35.729 Y21.977 E0.08466
G1 F215.2 X35.11 Y21.368 E0.08522
G1 F205.2 X34.359 Y20.744 E0.08589
G1 F204.4 X33.583 Y20.185 E0.08655
G1 F213.4 X32.499 Y19.743 E0.08732
G1 F223.2 X31.594 Y19.566 E0.08789
G1 F226.6 X30.699 Y19.524 E0.08845
G1 F225.2 X29.844 Y19.615 E0.08898
G1 F217.7 X28.975 Y19.805 E0.08956
G1 F208.8 X28.026 Y20.085 E0.09022
G1 F205.8 X27.132 Y20.466 E0.09088
G1 X26.332 Y20.929 E0.09151
G1 F211.9 X25.91 Y21.219 E0.09185
G1 F219.6 X24.932 Y22.04 E0.09266
G1 F219.9 X24.421 Y22.544 E0.09312
G1 F216.5 X23.898 Y23.099 E0.09361
G1 F209.8 X23.312 Y23.807 E0.09423
G1 F201.6 X22.806 Y24.48 E0.09481
G1 F194.7 X22.326 Y25.181 E0.09542
G1 F188.1 X21.878 Y25.899 E0.09605
G1 F181.6 X21.421 Y26.707 E0.09677
G1 F60 E-0.40323
G0 F600 X22.776 Y27.37
G0 X29.159 Y35.798
G0 X29.849 Y37.346
G0 X38.233 Y41.021
G0 X42.292 Y45.813
G0 X42.896 Y45.576
;TYPE:SKIN
G1 F60 E0.09677
G1 F300 X43.479 Y46.955 E0.09747
G1 X43.926 Y47.916 E0.09797
G1 X44.392 Y48.855 E0.09845
G1 X44.895 Y49.796 E0.09895
G1 X45.434 Y50.734 E0.09946
G1 X45.996 Y51.663 E0.09997
G1 X46.579 Y52.561 E0.10046
G1 X45.66 Y53.007 E0.10094
G1 X44.959 Y53.307 E0.1013
G1 X44.059 Y53.647 E0.10175
G1 X43.254 Y53.904 E0.10214
G1 X42.408 Y54.134 E0.10255
G1 X41.594 Y54.313 E0.10294
G1 X40.752 Y54.461 E0.10334
G1 X39.912 Y54.57 E0.10374
G1 X39.1 Y54.635 E0.10412
G1 X37.809 Y54.682 E0.10472
G1 X37.82 Y53.566 E0.10524
G1 X37.871 Y51.907 E0.10602
G1 X37.963 Y49.932 E0.10694
G1 X38.118 Y47.451 E0.1081
G1 X38.318 Y44.824 E0.10933
G1 X38.421 Y43.625 E0.10989
G1 X38.264 Y43.05 E0.11017
G1 X38.023 Y42.695 E0.11037
G1 X37.732 Y42.455 E0.11055
G1 X37.315 Y42.275 E0.11076
G1 X36.757 Y42.196 E0.11102
G1 X36.194 Y42.299 E0.11129
G1 X35.87 Y42.483 E0.11146
G1 X35.631 Y42.702 E0.11161
G1 X35.351 Y43.176 E0.11187
G1 X34.79 Y45.654 E0.11306
G1 X34.355 Y47.415 E0.11391
G1 X33.942 Y48.973 E0.11466
G1 X33.504 Y50.468 E0.11539
G1 X33.174 Y51.527 E0.1159
G1 X32.859 Y52.469 E0.11637
G1 X32.37 Y53.786 E0.11702
G1 X31.863 Y53.619 E0.11727
G1 X31.118 Y53.343 E0.11764
G1 X30.357 Y53.017 E0.11803
G1 X29.604 Y52.65 E0.11842
G1 X28.839 Y52.24 E0.11883
G1 X28.116 Y51.809 E0.11922
G1 X27.435 Y51.354 E0.1196
G1 X26.737 Y50.842 E0.12001
G1 X26.114 Y50.344 E0.12038
G1 X25.447 Y49.759 E0.12079
G1 X24.725 Y49.061 E0.12126
G1 X25.499 Y48.451 E0.12172
G1 X26.148 Y47.902 E0.12212
G1 X26.715 Y47.392 E0.12248
G1 X27.368 Y46.76 E0.1229
G1 X30.344 Y43.788 E0.12486
G1 X30.526 Y43.453 E0.12504
G1 X30.625 Y43.045 E0.12524
G1 X30.61 Y42.6 E0.12545
G1 X30.387 Y42.065 E0.12572
G1 X29.927 Y41.561 E0.12604
G1 X29.456 Y41.327 E0.12628
G1 X28.961 Y41.273 E0.12651
G1 X28.463 Y41.387 E0.12675
G1 X24.533 Y43.683 E0.12888
G1 X23.85 Y44.062 E0.12924
G1 X23.364 Y44.308 E0.1295
G1 X22.703 Y44.605 E0.12983
G1 X21.757 Y45.011 E0.13032
G1 X21.56 Y44.659 E0.1305
G1 X21.285 Y44.083 E0.1308
G1 X20.903 Y43.22 E0.13124
G1 X20.575 Y42.359 E0.13167
G1 X20.334 Y41.647 E0.13202
G1 X20.1 Y40.829 E0.13242
G1 X19.935 Y40.131 E0.13276
G1 X19.778 Y39.303 E0.13315
G1 X19.681 Y38.669 E0.13345
G1 X21.66 Y38.967 E0.13438
G1 X23.012 Y38.968 E0.13502
G1 X24.034 Y38.94 E0.13549
G1 X25.137 Y38.859 E0.13601
G1 X25.786 Y38.79 E0.13631
G1 X26.687 Y38.668 E0.13674
G1 X27.672 Y38.493 E0.13721
G1 X28.365 Y38.322 E0.13754
G1 X29.163 Y38.079 E0.13793
G1 X30.327 Y37.589 E0.13852
G1 X31.113 Y37.171 E0.13893
G1 X31.624 Y36.86 E0.13921
G1 X32.218 Y36.464 E0.13955
G1 X32.744 Y36.08 E0.13985
G1 X33.885 Y35.131 E0.14054
G1 X34.445 Y34.599 E0.1409
G1 X34.9 Y34.128 E0.14121
G1 X35.355 Y33.604 E0.14153
G1 X35.727 Y33.128 E0.14182
G1 X36.131 Y32.563 E0.14214
G1 X36.503 Y31.985 E0.14246
G1 X36.839 Y31.397 E0.14278
G1 X37.124 Y30.852 E0.14307
G1 X37.527 Y29.812 E0.14359
G1 X37.843 Y28.553 E0.14419
G1 X37.966 Y27.721 E0.14459
G1 X38.351 Y28.836 E0.14514
G1 X38.671 Y29.641 E0.14554
G1 X39.005 Y30.408 E0.14593
G1 X39.417 Y31.265 E0.14638
G1 X39.804 Y32.011 E0.14677
G1 X40.19 Y32.682 E0.14713
G1 X40.577 Y33.314 E0.14748
G1 X41.2 Y34.217 E0.14799
G1 X41.828 Y34.989 E0.14845
G1 X42.182 Y35.379 E0.1487
G1 X42.505 Y35.831 E0.14896
G1 X42.924 Y36.374 E0.14928
G1 X43.431 Y36.969 E0.14964
G1 X43.93 Y37.505 E0.14999
G1 X44.437 Y38.005 E0.15032
G1 X45.008 Y38.523 E0.15068
G1 X45.596 Y39.022 E0.15104
G1 X46.252 Y39.534 E0.15143
G1 X46.93 Y40.016 E0.15181
G1 X47.635 Y40.492 E0.15221
G1 X48.404 Y40.969 E0.15263
G1 X49.38 Y41.55 E0.15316
G1 X50.217 Y42.014 E0.15361
G1 X50.916 Y42.364 E0.15398
G1 X51.686 Y42.718 E0.15437
G1 X52.458 Y43.042 E0.15476
G1 X53.312 Y43.359 E0.15519
G1 X54.084 Y43.619 E0.15557
G1 X54.82 Y43.836 E0.15593
G1 X54.494 Y44.512 E0.15628
G1 X53.977 Y45.454 E0.15678
G1 X53.589 Y46.108 E0.15714
G1 X53.118 Y46.809 E0.15753
G1 X52.624 Y47.486 E0.15792
G1 X52.089 Y48.141 E0.15832
G1 X51.604 Y48.696 E0.15866
G1 X50.623 Y49.705 E0.15932
G1 X49.375 Y48.656 E0.16008
G1 X48.843 Y48.143 E0.16042
G1 X48.5 Y47.765 E0.16066
G1 X47.958 Y47.13 E0.16105
G1 X47.042 Y46 E0.16173
G1 X45.634 Y44.21 E0.16279
G1 X45.339 Y43.938 E0.16298
G1 X45.022 Y43.77 E0.16315
G1 X44.689 Y43.687 E0.16331
G1 X44.08 Y43.736 E0.1636
G1 X43.546 Y44.001 E0.16387
G1 X43.219 Y44.296 E0.16408
G1 X42.959 Y44.742 E0.16432
G1 X42.881 Y45.1 E0.16449
G1 X42.896 Y45.576 E0.16471
G0 F600 X42.292 Y45.813
G0 X39.31 Y40.172
G0 X35.524 Y39.603
G0 X26.134 Y48.781
G0 X26.03 Y48.657
G1 F300 X29.283 Y51.911 E0.16686
G1 X29.459 Y52.087
G0 F600 X29.566 Y51.89
G0 X31.93 Y52.945
G0 X31.876 Y53.09
G1 F300 X26.787 Y48.001 E0.17022
G0 F600 X26.895 Y48.121
G0 X27.626 Y47.43
G0 X27.515 Y47.314
G1 F300 X32.417 Y52.216 E0.17346
G0 F600 X32.267 Y52.164
G0 X32.62 Y51.107
G0 X32.768 Y51.153
G1 F300 X28.226 Y46.61 E0.17646
G0 F600 X28.933 Y45.904
G1 F300 X33.1 Y50.07 E0.17921
G0 F600 X32.955 Y50.028
G0 X33.271 Y48.933
G0 X33.42 Y48.976
G1 F300 X29.641 Y45.197 E0.18171
G0 F600 X30.348 Y44.49
G1 F300 X33.72 Y47.862 E0.18393
G0 F600 X33.57 Y47.822
G0 X33.858 Y46.698
G0 X34.008 Y46.736
G1 F300 X30.963 Y43.691 E0.18595
G0 F600 X31.169 Y43.898
G0 X32.485 Y42.485
G0 X31.068 Y42.382
G1 F300 X34.288 Y45.601 E0.18807
G0 F600 X34.138 Y45.563
G0 X34.404 Y44.416
G0 X34.551 Y44.45
G1 F300 X28.808 Y38.708 E0.19186
G0 F600 X28.855 Y38.863
G0 X29.913 Y38.489
G0 X29.85 Y38.335
G1 F300 X34.812 Y43.297 E0.19514
G0 F600 X34.664 Y43.264
G0 X34.878 Y42.268
G0 X35.285 Y42.356
G1 F300 X30.821 Y37.892 E0.19809
G0 F600 X30.899 Y38.039
G0 X31.81 Y37.525
G0 X31.726 Y37.383
G1 F300 X36.142 Y41.799 E0.20101
G0 F600 X35.031 Y41.559
G0 X35.524 Y39.603
G0 X39.31 Y40.172
G0 X39.222 Y42.009
G0 X37.628 Y41.871
G1 F300 X32.578 Y36.82 E0.20434
G0 F600 X32.675 Y36.953
G0 X33.48 Y36.332
G0 X33.377 Y36.205
G1 F300 X42.387 Y45.215 E0.21029
G0 F600 X42.1 Y45.327
G0 X42.733 Y44.147
G1 F300 X34.149 Y35.563 E0.21596
G0 F600 X34.252 Y35.683
G0 X34.992 Y34.988
G0 X34.873 Y34.873
G1 F300 X43.478 Y43.478 E0.22164
G0 F600 X43.047 Y42.726
G0 X44.58 Y41.924
G0 X45.267 Y42.683
G0 X44.612 Y43.198
G1 F300 X35.553 Y34.138 E0.22763
G0 F600 X35.675 Y34.245
G0 X36.315 Y33.449
G0 X36.181 Y33.352
G1 F300 X51.212 Y48.383 E0.23755
G0 F600 X51.095 Y48.277
G0 X51.866 Y47.624
G1 F300 X36.757 Y32.514 E0.24753
G0 F600 X36.895 Y32.602
G0 X37.429 Y31.701
G0 X37.282 Y31.625
G1 F300 X52.485 Y46.828 E0.25757
G0 F600 X52.361 Y46.736
G0 X52.936 Y45.907
G0 X53.064 Y45.993
G1 F300 X48.942 Y41.871 E0.26029
G1 X48.766 Y41.695
G0 F600 X48.653 Y41.883
G0 X51.725 Y43.449
G0 X51.787 Y43.302
G1 F300 X53.596 Y45.111 E0.26149
G1 X53.772 Y45.287
G0 F600 X53.443 Y45.087
G0 X49.485 Y47.849
G0 X49.376 Y47.962
G1 F300 X49.027 Y47.612 E0.26172
G0 F600 X49.149 Y47.503
G0 X44.58 Y41.924
G0 X41.526 Y43.68
G0 X42.81 Y46.882
G0 X44.425 Y50.295
G0 X44.561 Y50.218
G1 F300 X38.846 Y44.503 E0.26549
G0 F600 X39.005 Y44.517
G0 X38.901 Y45.826
G0 X38.743 Y45.814
G1 F300 X45.473 Y52.544 E0.26994
G0 F600 X45.404 Y52.4
G0 X44.419 Y52.813
G0 X44.471 Y52.957
G1 F300 X38.643 Y47.129 E0.27379
G0 F600 X38.802 Y47.141
G0 X38.715 Y48.465
G0 X38.556 Y48.455
G1 F300 X43.424 Y53.324 E0.277
G0 F600 X43.378 Y53.176
G0 X42.285 Y53.489
G0 X42.325 Y53.638
G1 F300 X38.472 Y49.786 E0.27955
G0 F600 X38.632 Y49.796
G0 X38.567 Y51.142
G0 X38.407 Y51.135
G1 F300 X41.155 Y53.883 E0.28136
G0 F600 X41.129 Y53.73
G0 X39.904 Y53.908
G0 X39.923 Y54.065
G1 F300 X38.353 Y52.495 E0.2824
G0 F600 X38.514 Y52.499
G0 X38.481 Y53.875
G0 X38.317 Y53.873
G1 F300 X38.596 Y54.152 E0.28258
G0 F600 X38.592 Y53.997
G0 X42.972 Y47.422
G0 X43.114 Y47.357
G1 F300 X38.779 Y43.022 E0.28545
G1 X38.603 Y42.846
G0 F600 X39.145 Y42.893
G0 X39.31 Y40.172
G0 X35.524 Y39.603
G0 X30.295 Y39.644
G0 X29.166 Y40.223
G0 X29.522 Y40.835
G1 F300 X27.685 Y38.999 E0.28666
G0 F600 X27.712 Y39.156
G0 X26.494 Y39.364
G0 X26.473 Y39.201
G1 F300 X28.221 Y40.949 E0.28781
G0 F600 X28.146 Y40.818
G0 X27.253 Y41.34
G0 X27.328 Y41.47
G1 F300 X25.213 Y39.355 E0.28921
G0 F600 X25.229 Y39.515
G0 X23.893 Y39.607
G0 X23.888 Y39.445
G1 F300 X26.435 Y41.992 E0.29089
G0 F600 X26.36 Y41.861
G0 X25.468 Y42.382
G0 X25.543 Y42.513
G1 F300 X22.497 Y39.467 E0.2929
